X:1
T:Soho, CM
T:Soho, CM
T:Joseph Barnby, 1881
T:Public Domain Courtesy of the Cyber Hymnal™
C:Joseph Barnby, 1881
Z:Public Domain
Z:Courtesy of the Cyber Hymnal™
%%score ( 1 2 ) ( 3 4 )
L:1/8
Q:1/4=125
M:6/4
K:G
V:1 treble 
V:2 treble 
V:3 bass 
V:4 bass 
V:1
 D2 | D4 [DE]2 [DF]4 [DG]2 | (G2 F2) [CG]2 [CA]4 [Dc]2 | [DB]4 [Gd]2 (^c2 B2) [GA]2 | %4
 [Fd]6- [Fd]4 [=Fd]2 | [Ed]4 [Ec]2 [EG]4 [Ec]2 | (c2 B2) [B,A]2 (G2 F2) [CE]2 | %7
 [B,D]2 [DG]2 [Gc]2 [FB]4 [FA]2 | G6- G4 |] %9
V:2
 D2 | D4 x8 | C4 x8 | x6 G4 x2 | x12 | x12 | ^D4 B,4 x4 | x12 | G6- G4 |] %9
V:3
 [G,B,]2 | [G,B,]4 [G,B,]2 [G,B,]4 [G,B,]2 | [D,A,]4 [D,G,]2 [D,F,]4 [F,A,]2 | %3
 G,4 [E,B,]2 (^C2 D2) [A,C]2 | [D,D]6- [D,D]4 [G,B,]2 | [C,G,]4 [C,G,]2 [C,G,]4 [A,,F,]2 | %6
 [B,,F,]4 [^D,F,]2 [E,G,]4 [C,G,]2 | (G,2 B,2) [D,E]2 [D,D]4 [D,C]2 | [G,,B,]6- [G,,B,]4 |] %9
V:4
 x2 | x12 | x12 | G,4 A,4 x4 | x12 | x12 | x12 | D,4 x8 | x10 |] %9

